svgs/sharp-solid/underline.svg

<svg xmlns="http://www.w3.org/2000/svg" viewBox="0 0 448 512"><!--! Font Awesome Pro 6.6.0 by @fontawesome - https://fontawesome.com License - https://fontawesome.com/license (Commercial License) Copyright 2024 Fonticons, Inc. --><path d="M16 32l32 0 96 0 32 0 0 64-32 0-16 0 0 128c0 53 43 96 96 96s96-43 96-96l0-128-16 0-32 0 0-64 32 0 96 0 32 0 0 64-32 0-16 0 0 128c0 88.4-71.6 160-160 160s-160-71.6-160-160L64 96 48 96 16 96l0-64zM0 480l0-64 32 0 384 0 32 0 0 64-32 0L32 480 0 480z"/></svg>

<svg xmlns="http://www.w3.org/2000/svg" viewBox="0 0 448 512"><!--! Font Awesome Pro 6.4.2 by @fontawesome - https://fontawesome.com License - https://fontawesome.com/license (Commercial License) Copyright 2023 Fonticons, Inc. --><path d="M16 32H48h96 32V96H144 128V224c0 53 43 96 96 96s96-43 96-96V96H304 272V32h32 96 32V96H400 384V224c0 88.4-71.6 160-160 160s-160-71.6-160-160V96H48 16V32zM0 480V416H32 416h32v64H416 32 0z"/></svg>
